X:4720
T:O'Dowd's
T:Dowd's Favourite
O:england
R:reel
M:C|
K:Gdor
DGGA BABG|DF~F2 CFAF|DGGA BABd|(3cBA fc AGGF|
DGGA BABG|DF~F2 dFcF|DGGA BABd|(3cBA fc AGGA||
B2dB FBdB|B2dB cAFA|B2dB fBdB|cAFA BGGA|
(3Bcd Bd fBdc|(3Bcd Bd cAFA|GB (3ABc Bbag|fdcA BGG2||
gd~d2 gbag|fc~c2 fgaf|gd~d2 gbag|fdcA BGBd|
g2fa g2ag|f2eg fdcA|GB (3ABc Bbag|fdcA BGGF||
"variations"
DGGA BABG|DF~F2 CFAF|DGGA BABd|cAfc AGGF|
DGGA BABG|DF~F2 FDCF|DGGA BABd|cAfc AGGA||
B2FB FBdB|DFBd cAFA|B2FB fBdB|cAFA BGGA|
~B3d fB~B2|~B2dB cAFA|GBAc Bage|fdcA BGG2||
gd~d2 gbag|fc~c2 fgaf|g2dg gbag|fdcA BGBd|
~g3d gbag|fgeg fdcA|GBAc Bage|fdcA BGGF||


